X:446
T:Lady Spencer Chichester
R:Strathspey
C:Nathaniel Gow
B:The Athole Collection
M:C
L:1/8
K:F
C|~F>GF>C D<F F2|F>GA>C D<G G2|~F>GA>c d>fc>f|c>AB>G A<FF:|
c|f>gf>c d<f ~f2|f/e/f/g/ f>c d<g g2|f>gf>c d<fc<f|c<AB>G A<F F>c|
f/e//f/g/ f>cd>f f2|f/e/f/g/ a>cd>g g2|f>ad>f c>dA>f|c>AG>c A>FF||

